icons/svg/office/financial.svg

<?xml version="1.0" encoding="UTF-8" standalone="no"?>
<!-- Created with Inkscape (http://www.inkscape.org/) -->

<svg
   xmlns:dc="http://purl.org/dc/elements/1.1/"
   xmlns:cc="http://creativecommons.org/ns#"
   xmlns:rdf="http://www.w3.org/1999/02/22-rdf-syntax-ns#"
   xmlns:svg="http://www.w3.org/2000/svg"
   xmlns="http://www.w3.org/2000/svg"
   xmlns:sodipodi="http://sodipodi.sourceforge.net/DTD/sodipodi-0.dtd"
   xmlns:inkscape="http://www.inkscape.org/namespaces/inkscape"
   version="1.0"
   width="580"
   height="580"
   id="svg2"
   sodipodi:version="0.32"
   inkscape:version="0.91 r"
   sodipodi:docname="financial.svg"
   inkscape:output_extension="org.inkscape.output.svg.inkscape">
  <metadata
     id="metadata10">
    <rdf:RDF>
      <cc:Work
         rdf:about="">
        <dc:format>image/svg+xml</dc:format>
        <dc:type
           rdf:resource="http://purl.org/dc/dcmitype/StillImage" />
        <cc:license
           rdf:resource="http://web.resource.org/cc/PublicDomain" />
        <dc:language>en</dc:language>
        <dc:title></dc:title>
      </cc:Work>
    </rdf:RDF>
  </metadata>
  <sodipodi:namedview
     inkscape:window-height="1004"
     inkscape:window-width="1920"
     inkscape:pageshadow="2"
     inkscape:pageopacity="0.0"
     guidetolerance="10.0"
     gridtolerance="10.0"
     objecttolerance="10.0"
     borderopacity="1.0"
     bordercolor="#666666"
     pagecolor="#ffffff"
     id="base"
     showgrid="false"
     inkscape:zoom="0.5"
     inkscape:cx="446.51809"
     inkscape:cy="383.62173"
     inkscape:window-x="1680"
     inkscape:window-y="0"
     inkscape:current-layer="svg2"
     inkscape:window-maximized="1" />
  <defs
     id="defs4">
    <inkscape:perspective
       sodipodi:type="inkscape:persp3d"
       inkscape:vp_x="0 : 290 : 1"
       inkscape:vp_y="0 : 1000 : 0"
       inkscape:vp_z="580 : 290 : 1"
       inkscape:persp3d-origin="290 : 193.33333 : 1"
       id="perspective12" />
  </defs>
  <g
     id="g1327">
    <path
       d="M 66.275,1.768 C 24.94,1.768 1.704,23.139 1.704,66.804 L 1.704,516.927 C 1.704,557.771 22.598,579.156 63.896,579.156 L 515.92,579.156 C 557.227,579.156 578.149,558.84 578.149,516.927 L 578.149,66.804 C 578.149,24.203 557.227,1.768 514.627,1.768 C 514.624,1.768 66.133,1.625 66.275,1.768 z"
       style="fill:#111111;stroke:#eeeeee;stroke-width:3.40799999"
       id="path1329" />
  </g>
  <path
     inkscape:connector-curvature="0"
     style="color:#000000;clip-rule:nonzero;display:inline;overflow:visible;visibility:visible;opacity:1;isolation:auto;mix-blend-mode:normal;color-interpolation:sRGB;color-interpolation-filters:linearRGB;solid-color:#000000;solid-opacity:1;fill:#ffffff;fill-opacity:1;fill-rule:nonzero;stroke:none;stroke-width:25;stroke-linecap:round;stroke-linejoin:round;stroke-miterlimit:4;stroke-dasharray:none;stroke-dashoffset:0;stroke-opacity:1;marker:none;color-rendering:auto;image-rendering:auto;shape-rendering:auto;text-rendering:auto;enable-background:accumulate"
     d="m 143.29087,308.48637 c -15.16319,0 -28.17493,9.21233 -33.74414,22.34765 l -2.89258,35.31446 0,38.75586 c 0,4.71422 0.89771,9.21518 2.51954,13.35546 l -79.132816,0 0,26.78907 0,10.71679 0,92.875 24.779038,0 0,-92.875 254.074738,0 0,92.875 24.77513,0 0,-92.875 0.002,0 0,-37.50586 -79.13281,0 c 1.62182,-4.14028 2.51953,-8.64126 2.51953,-13.35546 l 0,-38.75391 -2.89258,-35.31836 c -5.5692,-13.13175 -18.58094,-22.3457 -33.74414,-22.3457 l -77.13086,0 z m -7.71289,49.17382 8.67774,0 0,60.59961 -8.67774,0 z m 83.87891,0 8.67773,0 0,60.59961 -8.67773,0 z"
     id="path4178"
     sodipodi:nodetypes="sccsccccccccccccccsccscscccccccccc" />
  <path
     inkscape:connector-curvature="0"
     style="color:#000000;clip-rule:nonzero;display:inline;overflow:visible;visibility:visible;opacity:1;isolation:auto;mix-blend-mode:normal;color-interpolation:sRGB;color-interpolation-filters:linearRGB;solid-color:#000000;solid-opacity:1;fill:#ffffff;fill-opacity:1;fill-rule:nonzero;stroke:none;stroke-width:25;stroke-linecap:round;stroke-linejoin:round;stroke-miterlimit:4;stroke-dasharray:none;stroke-dashoffset:0;stroke-opacity:1;marker:none;color-rendering:auto;image-rendering:auto;shape-rendering:auto;text-rendering:auto;enable-background:accumulate"
     d="m 181.85728,203.24223 c -24.76076,0 -44.83397,20.07127 -44.83399,44.83203 0,24.76075 20.07323,44.83203 44.83399,44.83203 24.76076,0 44.83203,-20.07128 44.83203,-44.83203 0,-24.76076 -20.07127,-44.83203 -44.83203,-44.83203 z"
     id="path4176" />
  <path
     style="fill:#ffffff"
     inkscape:connector-curvature="0"
     id="path15"
     d="m 333.42879,203.59216 0,-17.58875 c -11.56612,-1.11031 -20.96787,-3.07843 -28.2069,-5.91198 -7.23904,-2.83479 -13.49354,-7.41058 -18.76178,-13.72989 -5.26991,-6.31804 -8.33375,-14.03825 -9.18982,-23.16066 l 23.25906,-3.32207 c 1.80059,9.44597 4.96954,16.38579 9.51189,20.81438 6.50979,6.25332 14.30621,9.74036 23.38755,10.45605 l 0,-55.99567 c -9.50855,-1.36791 -19.23404,-4.16973 -29.16978,-8.40418 -7.37087,-3.12665 -13.04631,-7.46008 -17.02961,-12.996451 -3.98332,-5.537642 -5.9758,-11.823958 -5.9758,-18.860216 0,-12.509184 5.82729,-22.637842 17.48017,-30.392318 7.79307,-5.210258 19.36086,-8.404173 34.69668,-9.576671 l 0,-8.404172 13.62202,0 0,8.404172 c 13.45181,0.977081 24.1168,3.973044 32.00166,8.989152 10.10929,6.385294 16.19188,15.147306 18.24946,26.287307 l -23.9032,2.735829 c -1.37171,-6.905557 -4.22194,-12.198296 -8.54734,-15.879482 -4.32709,-3.679919 -10.25782,-6.108665 -17.79891,-7.281163 l 0,50.718163 c 11.65122,2.21557 19.36419,3.94258 23.13391,5.1798 7.19564,2.41098 13.06297,5.34222 17.607,8.795 4.53732,3.45405 8.03169,7.55905 10.4714,12.3125 2.44306,4.75725 3.66125,9.90405 3.66125,15.44043 0,12.18307 -5.09804,22.34599 -15.29245,30.48875 -10.19439,8.14405 -23.38755,12.50919 -39.58278,13.09418 l 0,17.78543 -13.62368,0 z m 0,-154.009661 c -8.99624,1.043066 -16.08677,3.780165 -21.26824,8.208756 -5.18481,4.431128 -7.77304,9.674378 -7.77304,15.732284 0,5.99573 2.20275,11.011839 6.61827,15.049598 4.41217,4.041567 11.88818,7.265933 22.42467,9.674383 l 0,-48.665021 z M 347.0508,171.14797 c 8.99624,-0.84639 16.42887,-3.81062 22.29786,-8.89272 5.86566,-5.08082 8.80099,-11.36714 8.80099,-18.85893 0,-6.38531 -2.07759,-11.51561 -6.23278,-15.39096 -4.15519,-3.87533 -12.44554,-7.34461 -24.86607,-10.40782 l 0,53.55043 z" />
  <path
     style="fill:#ffffff"
     inkscape:connector-curvature="0"
     id="path17"
     d="m 512.32353,53.100477 c -11.6426,0 -21.41317,2.773866 -29.31303,8.321598 -4.7132,3.287546 -8.97424,7.948015 -12.78447,13.973403 -3.88312,6.23486 -6.16954,12.160181 -6.86058,17.775962 l 70.8882,0 -2.80605,13.76926 -69.74365,0 c -0.0716,1.43831 -0.10663,2.80855 -0.10663,4.10942 0,5.2769 0.0351,8.42568 0.10663,9.45304 l 66.9376,0 -2.90998,13.76793 -61.84649,0 c 2.91268,15.68655 9.91094,26.8167 20.99882,33.39447 7.96735,4.72584 16.5947,7.08877 25.88208,7.08877 12.95722,0 23.07466,-3.35559 30.34961,-10.06944 l 0,21.16624 c -8.66109,3.972 -18.22381,5.96 -28.68678,5.96 -31.3241,0 -52.49164,-12.87666 -63.51067,-38.63399 -2.22028,-5.20483 -4.12472,-11.50775 -5.71604,-18.90605 l -15.9023,0 2.90998,-13.76793 10.91242,0 c -0.20652,-2.87794 -0.31044,-5.99336 -0.31044,-9.35162 0,-1.36893 0.0351,-2.77387 0.10392,-4.21217 l -13.61588,0 2.90998,-13.76927 12.05833,0 C 446.56424,70.840412 457.75604,54.810962 475.84083,45.083083 486.99755,39.055029 499.29477,36.041 512.7406,36.041 c 12.88975,0 23.73333,2.773866 32.53345,8.322933 l -4.15846,19.111524 c -8.45324,-6.916654 -18.05375,-10.37498 -28.79206,-10.37498 z" />
  <path
     style="fill:#ffffff"
     inkscape:connector-curvature="0"
     id="path19"
     d="m 475.21914,292.12983 33.08506,0 0,15.54418 -29.82675,0 c 1.32842,3.08373 1.994,6.16337 1.994,9.24302 0,6.09247 -1.45253,12.53681 -4.3576,19.32622 -2.90644,6.79214 -7.68685,13.72475 -14.3385,20.79648 5.53191,-1.53983 10.57282,-2.31178 15.12546,-2.31178 5.81286,0 12.3595,0.87698 19.64127,2.62684 12.04171,2.87097 20.20046,4.30714 24.47078,4.30714 5.18275,0 11.90396,-1.96127 20.16636,-5.88242 l 6.09383,17.33085 c -6.44434,2.73049 -11.43343,4.51581 -14.96724,5.35733 -3.53792,0.83879 -7.0581,1.26023 -10.55509,1.26023 -2.94054,0 -5.92062,-0.2796 -8.92934,-0.84152 -1.8917,-0.34915 -6.42525,-1.62711 -13.602,-3.83387 -7.17948,-2.2054 -11.81668,-3.51882 -13.91842,-3.94025 -3.29105,-0.5592 -6.5821,-0.8388 -9.87315,-0.8388 -5.0409,0 -10.4146,0.87698 -16.12108,2.62685 -5.7065,1.74985 -10.90562,4.1312 -15.59737,7.14128 l -7.24767,-18.16965 c 6.72394,-3.71112 12.4277,-9.0139 17.12218,-15.91377 4.69039,-6.89716 7.03763,-15.3164 7.03763,-25.26047 0,-4.27031 -0.59738,-8.61156 -1.78668,-13.02508 l -20.58781,0 0,-15.54417 16.17428,0 c -2.31042,-7.84096 -3.77932,-13.56517 -4.41215,-17.17264 -0.62875,-3.60611 -0.94381,-7.12492 -0.94381,-10.55645 0,-14.56354 5.39279,-25.94241 16.17428,-34.13526 8.68248,-6.51117 19.18574,-9.76812 31.51114,-9.76812 12.6732,0 23.12327,3.48472 31.35157,10.45143 8.22694,6.96808 13.28557,16.75257 15.17728,29.3562 l -18.79976,2.83552 c -1.05155,-8.40151 -4.18575,-15.01907 -9.4026,-19.85131 -5.21685,-4.83223 -11.46616,-7.2463 -18.74657,-7.2463 -7.77276,0 -14.23347,2.50408 -19.37941,7.50953 -5.14728,5.00682 -7.72093,11.04744 -7.72093,18.11781 0.003,7.77414 1.99946,17.92824 5.98881,30.46095 z" />
  <path
     style="fill:#ffffff"
     inkscape:connector-curvature="0"
     id="path21"
     d="m 329.67333,384.07558 0,-34.13388 -43.58969,0 0,-14.60037 43.58969,0 0,-15.01907 -43.58969,0 0,-15.54416 35.81692,0 -42.64451,-74.68075 21.00516,0 30.46095,54.19795 c 3.42879,6.16203 6.09382,11.55482 7.9828,16.17429 1.60938,-3.71113 4.48036,-9.41625 8.61292,-17.12082 l 28.77928,-53.25279 22.47678,0 -42.53813,74.68075 35.81692,0 0,15.54417 -43.27463,0 0,15.01907 43.27463,0 0,14.60036 -43.27463,0 0,34.13389 -18.90477,0 z" />
</svg>

<svg width="580" height="580" viewBox="0 0 580 580" fill="none" xmlns="http://www.w3.org/2000/svg">
<g clip-path="url(#clip0)">
<path d="M66.275 1.7679C24.94 1.7679 1.70398 23.1389 1.70398 66.8039V516.927C1.70398 557.771 22.598 579.156 63.896 579.156H515.92C557.227 579.156 578.149 558.84 578.149 516.927V66.8039C578.149 24.2029 557.227 1.7679 514.627 1.7679C514.624 1.7679 66.133 1.6249 66.275 1.7679Z" fill="#111111" stroke="#EEEEEE" stroke-width="3.408"/>
<path d="M143.291 308.486C128.128 308.486 115.116 317.699 109.547 330.834L106.654 366.148V404.904C106.654 409.619 107.552 414.119 109.174 418.26H30.0409V445.049V455.766V548.641H54.8199V455.766H308.895V548.641H333.67V455.766H333.672V418.26H254.539C256.161 414.119 257.059 409.618 257.059 404.904V366.15L254.166 330.832C248.597 317.7 235.585 308.486 220.422 308.486H143.291H143.291ZM135.578 357.66H144.256V418.26H135.578V357.66ZM219.457 357.66H228.135V418.26H219.457V357.66Z" fill="white"/>
<path d="M181.857 203.242C157.097 203.242 137.023 223.313 137.023 248.074C137.023 272.835 157.097 292.906 181.857 292.906C206.618 292.906 226.689 272.835 226.689 248.074C226.689 223.313 206.618 203.242 181.857 203.242Z" fill="white"/>
<path d="M333.429 203.592V186.003C321.863 184.893 312.461 182.925 305.222 180.091C297.983 177.257 291.728 172.681 286.46 166.362C281.19 160.043 278.126 152.323 277.27 143.201L300.529 139.879C302.33 149.325 305.499 156.265 310.041 160.693C316.551 166.946 324.347 170.434 333.429 171.149V115.154C323.92 113.786 314.195 110.984 304.259 106.749C296.888 103.623 291.213 99.2893 287.229 93.7529C283.246 88.2153 281.254 81.929 281.254 74.8927C281.254 62.3835 287.081 52.2548 298.734 44.5004C306.527 39.2901 318.095 36.0962 333.43 34.9237V26.5195H347.052V34.9237C360.504 35.9008 371.169 38.8967 379.054 43.9129C389.163 50.2982 395.246 59.0602 397.304 70.2002L373.4 72.936C372.029 66.0304 369.178 60.7377 364.853 57.0565C360.526 53.3766 354.595 50.9478 347.054 49.7753V100.494C358.705 102.709 366.418 104.436 370.188 105.673C377.384 108.084 383.251 111.016 387.795 114.468C392.332 117.922 395.827 122.027 398.266 126.781C400.709 131.538 401.928 136.685 401.928 142.221C401.928 154.404 396.83 164.567 386.635 172.71C376.441 180.854 363.248 185.219 347.052 185.804V203.59H333.429V203.592ZM333.429 49.5825C324.433 50.6255 317.342 53.3626 312.161 57.7912C306.976 62.2224 304.387 67.4656 304.387 73.5235C304.387 79.5192 306.59 84.5353 311.006 88.5731C315.418 92.6147 322.894 95.839 333.43 98.2475V49.5825H333.429ZM347.051 171.148C356.047 170.302 363.48 167.337 369.349 162.255C375.214 157.174 378.15 150.888 378.15 143.396C378.15 137.011 376.072 131.881 371.917 128.005C367.762 124.13 359.471 120.661 347.051 117.598V171.148V171.148Z" fill="white"/>
<path d="M512.324 53.1005C500.681 53.1005 490.91 55.8744 483.01 61.4221C478.297 64.7096 474.036 69.3701 470.226 75.3955C466.343 81.6304 464.056 87.5557 463.365 93.1715H534.254L531.448 106.941H461.704C461.632 108.379 461.597 109.749 461.597 111.05C461.597 116.327 461.632 119.476 461.704 120.503H528.642L525.732 134.271H463.885C466.798 149.958 473.796 161.088 484.884 167.666C492.851 172.391 501.479 174.754 510.766 174.754C523.723 174.754 533.841 171.399 541.116 164.685V185.851C532.455 189.823 522.892 191.811 512.429 191.811C481.105 191.811 459.937 178.934 448.918 153.177C446.698 147.972 444.793 141.669 443.202 134.271H427.3L430.21 120.503H441.122C440.916 117.625 440.812 114.51 440.812 111.152C440.812 109.783 440.847 108.378 440.916 106.939H427.3L430.21 93.1701H442.268C446.564 70.8404 457.756 54.811 475.841 45.0831C486.998 39.055 499.295 36.041 512.741 36.041C525.63 36.041 536.474 38.8149 545.274 44.3639L541.116 63.4755C532.662 56.5588 523.062 53.1005 512.324 53.1005V53.1005Z" fill="white"/>
<path d="M475.219 292.13H508.304V307.674H478.477C479.806 310.758 480.471 313.837 480.471 316.917C480.471 323.01 479.019 329.454 476.114 336.243C473.207 343.035 468.427 349.968 461.775 357.04C467.307 355.5 472.348 354.728 476.901 354.728C482.714 354.728 489.26 355.605 496.542 357.355C508.584 360.226 516.743 361.662 521.013 361.662C526.196 361.662 532.917 359.701 541.179 355.78L547.273 373.11C540.829 375.841 535.84 377.626 532.306 378.468C528.768 379.307 525.248 379.728 521.751 379.728C518.81 379.728 515.83 379.448 512.821 378.887C510.93 378.537 506.396 377.259 499.219 375.053C492.04 372.847 487.403 371.534 485.301 371.112C482.01 370.553 478.719 370.274 475.428 370.274C470.387 370.274 465.013 371.151 459.307 372.9C453.6 374.65 448.401 377.032 443.709 380.042L436.462 361.872C443.186 358.161 448.889 352.858 453.584 345.958C458.274 339.061 460.621 330.642 460.621 320.698C460.621 316.428 460.024 312.086 458.835 307.673H438.247V292.129H454.421C452.111 284.288 450.642 278.563 450.009 274.956C449.38 271.35 449.065 267.831 449.065 264.399C449.065 249.836 454.458 238.457 465.24 230.264C473.922 223.753 484.425 220.496 496.751 220.496C509.424 220.496 519.874 223.981 528.102 230.948C536.329 237.916 541.388 247.7 543.28 260.304L524.48 263.139C523.428 254.738 520.294 248.12 515.077 243.288C509.86 238.456 503.611 236.042 496.331 236.042C488.558 236.042 482.097 238.546 476.951 243.551C471.804 248.558 469.23 254.599 469.23 261.669C469.233 269.443 471.23 279.597 475.219 292.13V292.13Z" fill="white"/>
<path d="M329.673 384.076V349.942H286.084V335.341H329.673V320.322H286.084V304.778H321.901L279.256 230.097H300.261L330.722 284.295C334.151 290.457 336.816 295.85 338.705 300.47C340.314 296.758 343.185 291.053 347.318 283.349L376.097 230.096H398.574L356.036 304.777H391.853V320.321H348.578V335.34H391.853V349.94H348.578V384.074H329.673V384.076Z" fill="white"/>
</g>
<defs>
<clipPath id="clip0">
<path d="M0 0H580V580H0V0Z" fill="white"/>
</clipPath>
</defs>
</svg>
